X:15
T:The Rising Moon
S:Bernie Waugh
R:Waltz
M:3/4
L:1/8
K:D Dorian
|:A2|\
"F"c4"Em7"d2|"D"A4-AA|"F"c3e "Am7"d>B|"Dm"c<A-A3A|\
"F"c4"Em7"d2|"D"A4-AD|"Bb"F3D "Am7"A>G|"Dm"F<D-D2:|
K:D
"A"AG|\
"D"F4F2|"F#m"A4Bc|"Bm"d3f "E"e>d|"A"c<A-A2"D"dc|\
"G"B3d c>B|"D"A<F-F2DE|"Bm"F3DF2|"F#m"A4"A"AG|
"D"F4F2|"F#m"A4Bc|"Bm"d3f "E"e>d|"A"c<A-A2"D"dc|\
"G"Bcd2cB|"D"B2A2GF|"A7"FEED D>E|"D"D4||
A2|\
"D"d3ef2|f2dedc|"G"B3c d>B|"D"A4dc|\
"G"B4AG|"D"F3ED2|"Bm"D>E//D// "E"C2D2|"A"E4AG|
"D"F4F2|"F#m"A4Bc|"Bm"d3f "E"e>d|"A"c<A-A2 "D"dc|\
"G"BcedcB|"D"B2A2GF|"A7"FEEDD>E|"D"D4||
K:D Dorian
|:A2|\
"F"c4"Em7"d2|"D"A4-AA|"F"c3e "Am7"d>B|"Dm"c<A-A3A|\
"F"c4"Em7"d2|"D"A4-AD|"Bb"F3D "Am7"A>G|"Dm"F<D-D2:|
K:D
de|\
"Bm"f3edf|"F#m"a4fg|"D7"a3gfd|"G"b4bb|\
"F#"b2^abc'2|"Bm"e2def2|"E7"BcedcB|"F#"^A2c3c|
"F#7"cB^A2c2|"Bm"d4cd|"A"e2c3d/e/|"D"f4fg|\
"D7"a4d2|"G"d'4gf|"F#7"e3gfe|"Bm"d4||
"A"AG|\
"D"F4F2|"F#m"A4Bc|"Bm"d3f "E"e>d|"A"c<A-A2"D"dc|\
"G"B3d c>B|"D"A<F-F2DE|"Bm"F3DF2|"F#m"A4"A"AG|
"D"F4F2|"F#m"A4Bc|"Bm"d3f "E"e>d|"A"c<A-A2"D"dc|\
"G"Bcd2cB|"D"B2A2GF|"A7"FEED D>E|"D"D4||
K:D Dorian
|:A2|\
"F"c4"Em7"d2|"D"A4-AA|"F"c3e "Am7"d>B|"Dm"c<A-A3A|\
"F"c4"Em7"d2|"D"A4-AD|"Bb"F3D "Am7"A>G|"Dm"F<D-D2:|

